app/assets/images/Contenido/ícono 1.svg

<svg fill="none" height="289" viewBox="0 0 289 289" width="289" xmlns="http://www.w3.org/2000/svg"><path d="m72.7016 65.7735v61.8275c0 15.479 12.5478 28.026 28.0254 28.026h49.159c15.478 0 28.026-12.548 28.026-28.026v-61.8275c0-11.8303-9.591-21.421-21.421-21.421h-62.3679c-11.8309-.0005-21.4215 9.5901-21.4215 21.421z" fill="#fa9801"/><path d="m156.491 44.3521h-.578c1.207 4.2238 1.867 8.6784 1.867 13.29v69.9599c0 15.477-12.547 28.025-28.025 28.025h20.132c15.478 0 28.025-12.548 28.025-28.025v-61.8284c0-11.8309-9.59-21.4215-21.421-21.4215z" fill="#f88604"/><path d="m191.074 200.081h-134.3803l-15.0179 14.301v41.477h167.2622v-41.477z" fill="#fff0dc"/><path d="m191.074 200.081h-2.268v55.778h20.132v-41.477z" fill="#ffddce"/><path d="m184.512 144.463-38.902-9.138v-27.634h-40.605v27.634l-38.9025 9.138c-13.548 2.815-24.4261 14.685-24.4261 30.081v39.838h25.3648c5.6728 0 10.2714 4.598 10.2714 10.271v31.206h95.9894v-31.206c0-5.673 4.599-10.271 10.272-10.271h25.365v-39.838c-.001-15.38-10.863-27.262-24.427-30.081z" fill="#fff0dc"/><path d="m184.512 144.463-38.902-9.138v-27.634h-20.132v29.908c0 5.586 3.844 10.438 9.283 11.716l29.62 6.958c13.563 2.819 24.426 14.702 24.426 30.081v28.028h20.132v-39.838c-.001-15.379-10.863-27.262-24.427-30.081z" fill="#ffddce"/><path d="m184.512 144.463-20.018-4.702c-6.783 12.729-21.772 21.582-39.187 21.582-17.414 0-32.4037-8.853-39.1861-21.582l-20.0184 4.702c-13.548 2.815-24.4261 14.684-24.4261 30.08v39.838h25.3648c5.6728 0 10.2714 4.599 10.2714 10.272v31.206h95.9894v-31.206c0-5.673 4.599-10.272 10.272-10.272h25.365v-39.838c-.001-15.379-10.863-27.261-24.427-30.08z" fill="#fc90d2"/><path d="m184.512 144.463-20.018-4.702c-2.848 5.345-7.148 10.002-12.461 13.612l12.347 2.9c13.564 2.819 24.426 14.701 24.426 30.081v28.027h20.133v-39.838c-.001-15.379-10.863-27.261-24.427-30.08z" fill="#fb74c4"/><path d="m87.8464 87.5883c.2123 9.8921 4.3689 19.4127 11.8789 25.8787 6.0457 5.206 14.5447 14.937 25.7697 15.063 11.226-.126 19.725-9.857 25.771-15.063 7.509-6.466 11.666-15.9866 11.878-25.8787l.054-49.8017h-75.7721z" fill="#fff0dc"/><path d="m143.054 37.7866-.042 59.7694c-.212 9.892-4.369 19.413-11.879 25.879-1.682 1.449-3.556 3.248-5.625 5.094 11.22-.132 19.714-9.858 25.758-15.062 7.509-6.466 11.666-15.9866 11.878-25.8787l.054-49.8017z" fill="#ffddce"/><path d="m177.912 66.5608s-13.977-1.1092-21.656-12.6359c-1.838-2.7596-5.526-3.5493-8.276-1.6962-12.893 8.6881-46.433 38.2316-75.2784 24.7553v-19.3422c0-26.6687 21.6191-48.2878 48.2874-48.2878h8.635c26.669 0 48.288 21.6191 48.288 48.2878z" fill="#fba615"/><path d="m129.624 9.354h-8.635c-1.946 0-3.862.1287-5.749.35222 23.4 2.77768 41.66 22.27898 42.496 46.22248 7.862 9.6533 20.176 10.6315 20.176 10.6315v-8.9184c0-26.6687-21.619-48.2878-48.288-48.2878z" fill="#fa9801"/><path d="m245.302 119.5c21.736 0 39.356-17.62 39.356-39.3551 0-21.7354-17.62-39.3553-39.356-39.3553-21.735 0-39.355 17.6199-39.355 39.3553 0 21.7351 17.62 39.3551 39.355 39.3551z" fill="#fbd307"/><path d="m245.302 40.7896c-3.48 0-6.852.4566-10.066 1.3044 16.857 4.4479 29.289 19.7954 29.289 38.0509 0 18.2556-12.432 33.6021-29.289 38.0511 3.213.848 6.586 1.304 10.066 1.304 21.736 0 39.356-17.62 39.356-39.3551 0-21.7354-17.62-39.3553-39.356-39.3553z" fill="#f9c301"/><path d="m144.45 244.741h-127.2212v-81.106c0-4.401 3.5679-7.969 7.9695-7.969h111.2827c4.401 0 7.97 3.567 7.97 7.969z" fill="#eff3f5"/><path d="m136.481 155.666h-20.028c4.401 0 7.969 3.567 7.969 7.969v81.106h20.029v-81.106c-.001-4.402-3.569-7.969-7.97-7.969z" fill="#e5ecf1"/><path d="m151.01 238.05h-140.3413c-3.55433 0-6.4353 2.881-6.4353 6.436 0 6.281 5.09193 11.373 11.3732 11.373h130.4664c6.281 0 11.373-5.092 11.373-11.373 0-3.555-2.881-6.436-6.436-6.436z" fill="#e5ecf1"/><path d="m280.163 279.646h-271.32649c-2.54229 0-4.60311-2.061-4.60311-4.603v-17.173c0-2.543 2.06082-4.603 4.60311-4.603h271.32649c2.543 0 4.604 2.06 4.604 4.603v17.173c0 2.541-2.061 4.603-4.604 4.603z" fill="#e7b467"/><path d="m280.163 253.267h-15.529v21.776c0 2.542-2.061 4.603-4.603 4.603h20.132c2.543 0 4.604-2.061 4.604-4.603v-17.173c0-2.543-2.061-4.603-4.604-4.603z" fill="#d7a85f"/><path d="m83.5266 206.268c6.1538 0 11.1423-4.989 11.1423-11.143s-4.9885-11.142-11.1423-11.142c-6.1537 0-11.1423 4.988-11.1423 11.142s4.9886 11.143 11.1423 11.143z" fill="#557981"/><g fill="#000"><path d="m252.544 93.3745c.827.8269 1.91 1.2401 2.994 1.2401 1.083 0 2.167-.4132 2.993-1.2401 1.654-1.6533 1.654-4.3334.001-5.9866l-8.996-8.9963v-17.4619c0-2.338-1.895-4.2334-4.234-4.2334-2.338 0-4.233 1.8954-4.233 4.2334v19.2151c0 1.1227.446 2.1991 1.239 2.9933z"/><path d="m280.163 249.033h-66.992c0-7.255 0-65.143 0-74.49 0-16.731-11.406-30.792-27.742-34.213l-5.389-1.266c1.384-3.643 2.106-7.527 2.106-11.463 0-9.795 0-62.9391 0-69.9592 0-28.9604-23.561-52.52119-52.521-52.52119h-8.635c-13.177 0-25.7786 4.90119-35.4849 13.80029-1.7233 1.5799-1.839 4.2577-.2591 5.9815 1.5799 1.7233 4.2576 1.8396 5.9815.2591 8.14-7.4632 18.7095-11.5735 29.7625-11.5735h8.635c24.292 0 44.054 19.7626 44.054 44.0544v3.7378c-2.274-.6807-5.12-1.8254-7.873-3.7259-.109-.0864-.221-.1677-.339-.2433-2.057-1.4721-4.047-3.3709-5.687-5.8325-3.129-4.698-9.449-6.0374-14.165-2.8601-12.249 8.2534-42.84 35.004-68.6795 25.4506v-16.5272c0-6.0362 1.1978-11.8834 3.5595-17.3783.9228-2.1484-.07-4.6376-2.2178-5.561-2.1472-.9229-4.6375.07-5.561 2.2177-2.8183 6.5573-4.2469 13.5294-4.2469 20.7216v69.9592c0 3.936.7214 7.82 2.106 11.463-3.4161 1.18-14.8643 1.513-24.4499 12.368h-20.9271c-6.7283 0-12.2029 5.474-12.2029 12.202v70.182h-2.3267c-5.8827.001-10.6687 4.787-10.6687 10.669 0 2.756.723064 5.407 2.05179 7.732-1.279618 1.533-2.05179 3.504-2.05179 5.653v17.173c0 4.872 3.96415 8.836 8.83651 8.836h271.32649c4.873 0 8.836-3.964 8.836-8.836v-17.173c.001-4.873-3.963-8.837-8.836-8.837zm-102.628 0v-24.38c0-3.329 2.709-6.038 6.038-6.038h21.132v30.418zm-27.691-117.063v-11.501c1.568-1.432 2.939-2.721 4.184-3.793 8.24-7.095 13.105-17.6643 13.348-28.9968.001-.0288.001-.0576.001-.0858l.021-19.4979c2.369.9934 4.547 1.6262 6.281 2.0264v57.4801c0 3.286-.683 6.519-1.983 9.502-26.875-6.314-19.091-4.485-21.852-5.134zm-6.674 21.466c-1.922-1.265-4.22-2.003-6.689-2.003h-33.016c-4.1805-2.4-7.7321-5.43-10.4996-8.931l13.0076-3.056c1.913-.45 3.265-2.156 3.265-4.121v-8.248c4.597 3.147 9.973 5.616 16.211 5.686h.047.047c6.069-.068 11.321-2.409 15.834-5.434v7.996c0 1.965 1.353 3.671 3.266 4.121l13.005 3.055c-3.636 4.606-8.602 8.368-14.478 10.935zm7.176-97.6964c.807-.5424 1.853-.2703 2.387.5329 1.836 2.7551 3.972 4.9852 6.204 6.7983l-.027 24.4684c-.202 8.919-3.994 17.1978-10.407 22.7198-5.919 5.098-13.636 13.903-23.008 14.037-9.366-.134-17.06-8.914-23.008-14.037-6.4233-5.53-10.217-13.8268-10.4078-22.7068l-.0248-2.9718c24.5136-1.7284 47.6816-21.6891 58.2916-28.8408zm-73.411 71.8614v-44.5226c2.2109.6372 4.4304 1.0747 6.6515 1.3338l.0276 3.2664c.2433 11.3326 5.1089 21.9004 13.3488 28.9964 1.1379.979 2.4215 2.178 3.8081 3.45v11.845c-5.0398 1.183-16.7313 3.93-21.8531 5.133-1.2999-2.982-1.9829-6.216-1.9829-9.502zm-9.9717 21.007c1.4422-.302-4.9271 1.158 17.0922-4.014 1.5794 2.448 3.4404 4.734 5.5447 6.838h-30.1893c2.3431-1.311 4.8877-2.27 7.5524-2.824zm-45.5011 15.026c0-2.059 1.6759-3.735 3.7361-3.735h111.2827c2.012 0 3.736 1.638 3.736 3.735v23.412c0 2.338 1.896 4.233 4.234 4.233s4.233-1.895 4.233-4.233v-23.412c0-1.113-.153-2.191-.433-3.216 7.674-3.697 14.01-9.16 18.308-15.824 22.822 5.361 15.668 3.718 17.093 4.014 12.396 2.576 21.053 13.24 21.053 25.935v35.605h-21.131c-7.999 0-14.505 6.507-14.505 14.505v24.38h-8.068c.442-1.456.679-2.985.679-4.548 0-5.882-4.786-10.668-10.668-10.668h-2.327v-26.945c0-2.338-1.895-4.233-4.234-4.233-2.338 0-4.233 1.895-4.233 4.233v26.945h-118.7558zm-10.7935 78.649h140.3413c1.214 0 2.202.988 2.202 2.202 0 1.682-.593 3.278-1.647 4.548h-141.45c-1.05496-1.27-1.6482-2.866-1.6482-4.548 0-1.214.98779-2.202 2.2019-2.202zm269.8643 32.759c0 .204-.166.37-.37.37h-271.32649c-.20376 0-.36971-.166-.36971-.37v-17.173c0-.204.16595-.37.36971-.37h271.32649c.204 0 .37.166.37.37z"/><path d="m83.5266 179.75c-8.4781 0-15.3751 6.898-15.3751 15.375 0 8.478 6.8976 15.376 15.3751 15.376 8.4781 0 15.3757-6.898 15.3757-15.376s-6.8976-15.375-15.3757-15.375zm0 22.284c-3.8095 0-6.9083-3.099-6.9083-6.909 0-3.809 3.0994-6.908 6.9083-6.908 3.8095 0 6.9089 3.099 6.9089 6.908 0 3.81-3.0994 6.909-6.9089 6.909z"/><path d="m245.302 123.734c24.035 0 43.589-19.554 43.589-43.5891 0-24.035-19.554-43.5887-43.589-43.5887s-43.588 19.5537-43.588 43.5887c0 24.0351 19.553 43.5891 43.588 43.5891zm0-78.7105c19.367 0 35.122 15.7556 35.122 35.122s-15.755 35.1215-35.122 35.1215c-19.366 0-35.122-15.7551-35.122-35.1215s15.756-35.122 35.122-35.122z"/></g></svg>

<svg width="289" height="289" viewBox="0 0 289 289" fill="none" xmlns="http://www.w3.org/2000/svg">
<path d="M72.7016 65.7735V127.601C72.7016 143.08 85.2494 155.627 100.727 155.627H149.886C165.364 155.627 177.912 143.079 177.912 127.601V65.7735C177.912 53.9432 168.321 44.3525 156.491 44.3525H94.1231C82.2922 44.352 72.7016 53.9426 72.7016 65.7735Z" fill="#FA9801"/>
<path d="M156.491 44.3521H155.913C157.12 48.5759 157.78 53.0305 157.78 57.6421V127.602C157.78 143.079 145.233 155.627 129.755 155.627H149.887C165.365 155.627 177.912 143.079 177.912 127.602V65.7736C177.912 53.9427 168.322 44.3521 156.491 44.3521Z" fill="#F88604"/>
<path d="M191.074 200.081H56.6937L41.6758 214.382V255.859H208.938V214.382L191.074 200.081Z" fill="#FFF0DC"/>
<path d="M191.074 200.081H188.806V255.859H208.938V214.382L191.074 200.081Z" fill="#FFDDCE"/>
<path d="M184.512 144.463L145.61 135.325V107.691H105.005V135.325L66.1025 144.463C52.5545 147.278 41.6764 159.148 41.6764 174.544V214.382H67.0412C72.714 214.382 77.3126 218.98 77.3126 224.653V255.859H173.302V224.653C173.302 218.98 177.901 214.382 183.574 214.382H208.939V174.544C208.938 159.164 198.076 147.282 184.512 144.463Z" fill="#FFF0DC"/>
<path d="M184.512 144.463L145.61 135.325V107.691H125.478V137.599C125.478 143.185 129.322 148.037 134.761 149.315L164.381 156.273C177.944 159.092 188.807 170.975 188.807 186.354V214.382H208.939V174.544C208.938 159.165 198.076 147.282 184.512 144.463Z" fill="#FFDDCE"/>
<path d="M184.512 144.463L164.494 139.761C157.711 152.49 142.722 161.343 125.307 161.343C107.893 161.343 92.9033 152.49 86.1209 139.761L66.1025 144.463C52.5545 147.278 41.6764 159.147 41.6764 174.543V214.381H67.0412C72.714 214.381 77.3126 218.98 77.3126 224.653V255.859H173.302V224.653C173.302 218.98 177.901 214.381 183.574 214.381H208.939V174.543C208.938 159.164 198.076 147.282 184.512 144.463Z" fill="#FC90D2"/>
<path d="M184.512 144.463L164.494 139.761C161.646 145.106 157.346 149.763 152.033 153.373L164.38 156.273C177.944 159.092 188.806 170.974 188.806 186.354V214.381H208.939V174.543C208.938 159.164 198.076 147.282 184.512 144.463Z" fill="#FB74C4"/>
<path d="M87.8464 87.5883C88.0587 97.4804 92.2153 107.001 99.7253 113.467C105.771 118.673 114.27 128.404 125.495 128.53C136.721 128.404 145.22 118.673 151.266 113.467C158.775 107.001 162.932 97.4804 163.144 87.5883L163.198 37.7866H87.4259L87.8464 87.5883Z" fill="#FFF0DC"/>
<path d="M143.054 37.7866L143.012 97.556C142.8 107.448 138.643 116.969 131.133 123.435C129.451 124.884 127.577 126.683 125.508 128.529C136.728 128.397 145.222 118.671 151.266 113.467C158.775 107.001 162.932 97.4804 163.144 87.5883L163.198 37.7866H143.054Z" fill="#FFDDCE"/>
<path d="M177.912 66.5608C177.912 66.5608 163.935 65.4516 156.256 53.9249C154.418 51.1653 150.73 50.3756 147.98 52.2287C135.087 60.9168 101.547 90.4603 72.7016 76.984V57.6418C72.7016 30.9731 94.3207 9.354 120.989 9.354H129.624C156.293 9.354 177.912 30.9731 177.912 57.6418V66.5608Z" fill="#FBA615"/>
<path d="M129.624 9.354H120.989C119.043 9.354 117.127 9.4827 115.24 9.70622C138.64 12.4839 156.9 31.9852 157.736 55.9287C165.598 65.582 177.912 66.5602 177.912 66.5602V57.6418C177.912 30.9731 156.293 9.354 129.624 9.354Z" fill="#FA9801"/>
<path d="M245.302 119.5C267.038 119.5 284.658 101.88 284.658 80.1449C284.658 58.4095 267.038 40.7896 245.302 40.7896C223.567 40.7896 205.947 58.4095 205.947 80.1449C205.947 101.88 223.567 119.5 245.302 119.5Z" fill="#FBD307"/>
<path d="M245.302 40.7896C241.822 40.7896 238.45 41.2462 235.236 42.094C252.093 46.5419 264.525 61.8894 264.525 80.1449C264.525 98.4005 252.093 113.747 235.236 118.196C238.449 119.044 241.822 119.5 245.302 119.5C267.038 119.5 284.658 101.88 284.658 80.1449C284.658 58.4095 267.038 40.7896 245.302 40.7896Z" fill="#F9C301"/>
<path d="M144.45 244.741H17.2288V163.635C17.2288 159.234 20.7967 155.666 25.1983 155.666H136.481C140.882 155.666 144.451 159.233 144.451 163.635L144.45 244.741Z" fill="#EFF3F5"/>
<path d="M136.481 155.666H116.453C120.854 155.666 124.422 159.233 124.422 163.635V244.741H144.451V163.635C144.45 159.233 140.882 155.666 136.481 155.666Z" fill="#E5ECF1"/>
<path d="M151.01 238.05H10.6687C7.11437 238.05 4.2334 240.931 4.2334 244.486C4.2334 250.767 9.32533 255.859 15.6066 255.859H146.073C152.354 255.859 157.446 250.767 157.446 244.486C157.446 240.931 154.565 238.05 151.01 238.05Z" fill="#E5ECF1"/>
<path d="M280.163 279.646H8.83651C6.29422 279.646 4.2334 277.585 4.2334 275.043V257.87C4.2334 255.327 6.29422 253.267 8.83651 253.267H280.163C282.706 253.267 284.767 255.327 284.767 257.87V275.043C284.767 277.584 282.706 279.646 280.163 279.646Z" fill="#E7B467"/>
<path d="M280.163 253.267H264.634V275.043C264.634 277.585 262.573 279.646 260.031 279.646H280.163C282.706 279.646 284.767 277.585 284.767 275.043V257.87C284.767 255.327 282.706 253.267 280.163 253.267Z" fill="#D7A85F"/>
<path d="M83.5266 206.268C89.6804 206.268 94.6689 201.279 94.6689 195.125C94.6689 188.971 89.6804 183.983 83.5266 183.983C77.3729 183.983 72.3843 188.971 72.3843 195.125C72.3843 201.279 77.3729 206.268 83.5266 206.268Z" fill="#557981"/>
<path d="M252.544 93.3745C253.371 94.2014 254.454 94.6146 255.538 94.6146C256.621 94.6146 257.705 94.2014 258.531 93.3745C260.185 91.7212 260.185 89.0411 258.532 87.3879L249.536 78.3916V60.9297C249.536 58.5917 247.641 56.6963 245.302 56.6963C242.964 56.6963 241.069 58.5917 241.069 60.9297V80.1448C241.069 81.2675 241.515 82.3439 242.308 83.1381L252.544 93.3745Z" fill="black"/>
<path d="M280.163 249.033H213.171C213.171 241.778 213.171 183.89 213.171 174.543C213.171 157.812 201.765 143.751 185.429 140.33L180.04 139.064C181.424 135.421 182.146 131.537 182.146 127.601C182.146 117.806 182.146 64.6619 182.146 57.6418C182.146 28.6814 158.585 5.12061 129.625 5.12061H120.99C107.813 5.12061 95.2114 10.0218 85.5051 18.9209C83.7818 20.5008 83.6661 23.1786 85.246 24.9024C86.8259 26.6257 89.5036 26.742 91.2275 25.1615C99.3675 17.6983 109.937 13.588 120.99 13.588H129.625C153.917 13.588 173.679 33.3506 173.679 57.6424V61.3802C171.405 60.6995 168.559 59.5548 165.806 57.6543C165.697 57.5679 165.585 57.4866 165.467 57.411C163.41 55.9389 161.42 54.0401 159.78 51.5785C156.651 46.8805 150.331 45.5411 145.615 48.7184C133.366 56.9718 102.775 83.7224 76.9355 74.169V57.6418C76.9355 51.6056 78.1333 45.7584 80.495 40.2635C81.4178 38.1151 80.425 35.6259 78.2772 34.7025C76.13 33.7796 73.6397 34.7725 72.7162 36.9202C69.8979 43.4775 68.4693 50.4496 68.4693 57.6418V127.601C68.4693 131.537 69.1907 135.421 70.5753 139.064C67.1592 140.244 55.711 140.577 46.1254 151.432H25.1983C18.47 151.432 12.9954 156.906 12.9954 163.634V233.816H10.6687C4.786 233.817 0 238.603 0 244.485C0 247.241 0.723064 249.892 2.05179 252.217C0.772172 253.75 0 255.721 0 257.87V275.043C0 279.915 3.96415 283.879 8.83651 283.879H280.163C285.036 283.879 288.999 279.915 288.999 275.043V257.87C289 252.997 285.036 249.033 280.163 249.033ZM177.535 249.033V224.653C177.535 221.324 180.244 218.615 183.573 218.615H204.705V249.033H177.535ZM149.844 131.97V120.469C151.412 119.037 152.783 117.748 154.028 116.676C162.268 109.581 167.133 99.0117 167.376 87.6792C167.377 87.6504 167.377 87.6216 167.377 87.5934L167.398 68.0955C169.767 69.0889 171.945 69.7217 173.679 70.1219V127.602C173.679 130.888 172.996 134.121 171.696 137.104C144.821 130.79 152.605 132.619 149.844 131.97ZM143.17 153.436C141.248 152.171 138.95 151.433 136.481 151.433H103.465C99.2845 149.033 95.7329 146.003 92.9654 142.502L105.973 139.446C107.886 138.996 109.238 137.29 109.238 135.325V127.077C113.835 130.224 119.211 132.693 125.449 132.763H125.496C125.496 132.763 125.528 132.763 125.543 132.763C131.612 132.695 136.864 130.354 141.377 127.329V135.325C141.377 137.29 142.73 138.996 144.643 139.446L157.648 142.501C154.012 147.107 149.046 150.869 143.17 153.436ZM150.346 55.7396C151.153 55.1972 152.199 55.4693 152.733 56.2725C154.569 59.0276 156.705 61.2577 158.937 63.0708L158.91 87.5392C158.708 96.4582 154.916 104.737 148.503 110.259C142.584 115.357 134.867 124.162 125.495 124.296C116.129 124.162 108.435 115.382 102.487 110.259C96.0637 104.729 92.27 96.4322 92.0792 87.5522L92.0544 84.5804C116.568 82.852 139.736 62.8913 150.346 55.7396ZM76.935 127.601V83.0784C79.1459 83.7156 81.3654 84.1531 83.5865 84.4122L83.6141 87.6786C83.8574 99.0112 88.723 109.579 96.9629 116.675C98.1008 117.654 99.3844 118.853 100.771 120.125V131.97C95.7312 133.153 84.0397 135.9 78.9179 137.103C77.618 134.121 76.935 130.887 76.935 127.601ZM66.9633 148.608C68.4055 148.306 62.0362 149.766 84.0555 144.594C85.6349 147.042 87.4959 149.328 89.6002 151.432H59.4109C61.754 150.121 64.2986 149.162 66.9633 148.608ZM21.4622 163.634C21.4622 161.575 23.1381 159.899 25.1983 159.899H136.481C138.493 159.899 140.217 161.537 140.217 163.634V187.046C140.217 189.384 142.113 191.279 144.451 191.279C146.789 191.279 148.684 189.384 148.684 187.046V163.634C148.684 162.521 148.531 161.443 148.251 160.418C155.925 156.721 162.261 151.258 166.559 144.594C189.381 149.955 182.227 148.312 183.652 148.608C196.048 151.184 204.705 161.848 204.705 174.543V210.148H183.574C175.575 210.148 169.069 216.655 169.069 224.653V249.033H161.001C161.443 247.577 161.68 246.048 161.68 244.485C161.68 238.603 156.894 233.817 151.012 233.817H148.685V206.872C148.685 204.534 146.79 202.639 144.451 202.639C142.113 202.639 140.218 204.534 140.218 206.872V233.817H21.4622V163.634ZM10.6687 242.283H151.01C152.224 242.283 153.212 243.271 153.212 244.485C153.212 246.167 152.619 247.763 151.565 249.033H10.115C9.06004 247.763 8.4668 246.167 8.4668 244.485C8.4668 243.271 9.45459 242.283 10.6687 242.283ZM280.533 275.042C280.533 275.246 280.367 275.412 280.163 275.412H8.83651C8.63275 275.412 8.4668 275.246 8.4668 275.042V257.869C8.4668 257.665 8.63275 257.499 8.83651 257.499H280.163C280.367 257.499 280.533 257.665 280.533 257.869V275.042H280.533Z" fill="black"/>
<path d="M83.5266 179.75C75.0485 179.75 68.1515 186.648 68.1515 195.125C68.1515 203.603 75.0491 210.501 83.5266 210.501C92.0047 210.501 98.9023 203.603 98.9023 195.125C98.9023 186.647 92.0047 179.75 83.5266 179.75ZM83.5266 202.034C79.7171 202.034 76.6183 198.935 76.6183 195.125C76.6183 191.316 79.7177 188.217 83.5266 188.217C87.3361 188.217 90.4355 191.316 90.4355 195.125C90.4355 198.935 87.3361 202.034 83.5266 202.034Z" fill="black"/>
<path d="M245.302 123.734C269.337 123.734 288.891 104.18 288.891 80.1449C288.891 56.1099 269.337 36.5562 245.302 36.5562C221.267 36.5562 201.714 56.1099 201.714 80.1449C201.714 104.18 221.267 123.734 245.302 123.734ZM245.302 45.0235C264.669 45.0235 280.424 60.7791 280.424 80.1455C280.424 99.5119 264.669 115.267 245.302 115.267C225.936 115.267 210.18 99.5119 210.18 80.1455C210.18 60.7791 225.936 45.0235 245.302 45.0235Z" fill="black"/>
</svg>
